X: 071
M: 6/8
L: 1/8
K: C
V: 1
f | ega gec | (e/f/g).e Td2c | ega gec | gea gec | f>ga gec | fge d2D | (E/F/G).G c2G | ECC C2 ||
f | ega gec | (e/f/g).e Td2c | ega gec | gea gec | fga gec | Tf2e dgf | ece fdf | ecc c2 |]
V: 2 clef=bass middle=d
z | c3 e2c | g3 G2z | c3 e3 | f3 e3 | d2B c3 | g3 G3  | c3 c3 | c3 c2 :|
z | c3 c3 | c3 g2c' | c3 c3 | c3 e3 | f3 c3 | B2c G2B | c3 c3 | c3 c3 ||
    c3 c3 | c3 g2c' | c3 c3 | c3 e3 | f3 c3 | d2c B3  | c3 G3 | c3 c2 |]


